X:1
T:Title
%%score { ( 1 3 ) | ( 2 4 ) }
L:1/8
M:9/8
K:Bb
V:1 treble nm="Grand Piano"
V:3 treble 
V:2 bass 
V:4 bass 
V:1
 z3 z3[Q:1/4=100] [DF]>[DF][DF] | [DG]3 [DF]3 [DB]>[DA][DG] | [EA]6 F>FF |[M:3/4] G3 F3 | %4
[M:3/8] c>BA |[M:9/8] [DB]6 [DF]>[DF][DF] | [DG]3 [DF]3 [Fd]>[Fc][FB] |[M:3/4] c6 |[M:3/8] B>AB | %9
[M:9/8] F3 B3 A>GA |[M:3/4] [DB]6 |[M:6/8] .[Fd]6 | z3 [DB]3[K:bass] | d2- [Gd-] [Bd][Ac][Bd] | %14
 [Ae]6 | .e6 | z2 A, c2 [Ge] | .[Fd]6 | B6 |] %19
V:2
 z3 z3 [B,,B,]>[B,,B,][B,,B,] | [B,,B,]3 [B,,B,]3 [B,,F,]>[B,,F,][B,,F,] | %2
 [C,F,]6 [F,A,E]>[F,A,E][F,A,E] |[M:3/4] [F,B,E]3 [F,A,E]3 |[M:3/8] [F,A,E]>[F,B,D][F,CE] | %5
[M:9/8] [B,,B,]6 [B,,B,]>[B,,B,][B,,B,] | [B,,B,]3 [B,,B,]3 [B,,B,]>[C,A,][D,B,] | %7
[M:3/4] [E,G,E]6 |[M:3/8] [E,G,C]>[E,G,C][E,G,_D] |[M:9/8] [F,B,D]3 [F,B,D]3 [F,CE]>[F,B,E][F,CE] | %10
[M:3/4] [B,,B,]6 |[M:6/8] [B,,B,]2 B,, B,,[B,,B,][B,,B,] | [B,,B,]2 [B,,B,] .[B,,F,]3 | %13
 [B,,B,]2 [B,,B,] [B,,F,][B,,F,][B,,F,] | [C,F,]2 F, .F,3 | [F,C]2 [F,B,] [F,A,][F,_A,F][F,=A,F] | %16
 E3 z3 | [F,B,]2 F, F,[F,E][F,F] | .F,3 z3 |] %19
V:3
 x9 | x9 | x9 |[M:3/4] x6 |[M:3/8] x3 |[M:9/8] x9 | x9 |[M:3/4] x6 |[M:3/8] x3 |[M:9/8] x9 | %10
[M:3/4] x6 |[M:6/8] z2 B, B,[=E_d][F=d] | [DF]3 z2[K:bass] [B,,F,] | .F3 z3 | z2 C .C3 | A2 G Fde | %16
 F3 z3 | z2 B, B,cd | D2 E .D3 |] %19
V:4
 x9 | x9 | x9 |[M:3/4] x6 |[M:3/8] x3 |[M:9/8] x9 | x9 |[M:3/4] x6 |[M:3/8] x3 |[M:9/8] x9 | %10
[M:3/4] x6 |[M:6/8] x6 | x6 | x6 | x6 | x6 | [F,A,]2 F, [F,A,E]2 [F,A,] | x6 | %18
 B,,2- [B,,-G,] [B,,F,]3 |] %19

